X:5
T:Cronin's Hornpipe
R:hornpipe
H:Bar 2 of 2nd part also played |bged e2ga|
Z:id:hn-hornpipe-5
M:C|
K:G
BA|GABd dBde|gage dega|bage dBGA|BAAG AcBA|
GABd dBde|gage dega|bage dBAB|G2GF G2:|
|:(3efg|afd^c dega|beed e2ga|(3bag af gedB|BAAG AcBA|
GABd dBde|gage dega|bage dBAB|G2GF G2:|

